X:1
T:Title
%%score { ( 1 3 ) | ( 2 4 ) }
L:1/8
Q:1/4=120
M:6/4
K:Eb
V:1 treble nm="Grand Piano"
V:3 treble 
V:2 bass 
V:4 bass 
V:1
 B4 B2 G2- | G2 E2 E2 z2 [Ec]2 [Ec]2 | .[EB]4 [Ge]2- [Ge]2 [Ac]2 [GB]2- | %3
w: M.~C.~Williams * *|||
 [GB]2 G2 G2 F2 E2 [DF]2- | [DF]2 z2 B2- B2 B2 G2- | G2 E2 E2 z2 [Ec]2 [Ec]2 | %6
w: |||
 .[EB]4 [Ge]2- [Ge]2 G2 F2 | G2 A2 G2- G2 [DF]2 E2- | E4 [GB]2- [GB]2 [Ge]2 [Ge]2- | %9
w: |||
 [Ge]2 [Fd]2 [DFA]2- [DFA]2 [DAc]2 [Ac]2 | .[GB]4 [Ge]2- [Ge]2 [Ge]2 e2 | %11
w: ||
 d2 [Gc]2 [FB]2- [FB]2 .[E=A]4 | z2 A,2 B2- B2 B2 G2- | G2 E2 [A,C]2- [A,C]2 [Ec]2 [Ec]2 | %14
w: |||
 .[EB]4 [Ge]2- [Ge]2 [B,EG]2 F2 | [=EG]2 [CFA]2 [_EG]2- [EG]2 [A,DF]2 [G,E]2- | [G,E]4 z2 z6 |] %17
w: |||
V:2
 [E,G,E]4 [E,G,E]2 [E,B,E]2- | [E,B,E]2 .[E,B,_D]4 A2 [A,,A,]2 [E,A,]2 | %2
 .[E,G,]4 [E,B,]2- [E,B,]2 [E,E]2 [E,E]2- | [E,E]2 [E,B,E]2 [F,=A,E]2- [F,A,E]2 [F,A,]2 [B,,B,]2- | %4
 [B,,B,]2 z2 [E,G,E]2- [E,G,E]2 [E,G,E]2 [E,B,E]2- | [E,B,E]2 .[E,B,D]4 A2 [A,,A,]2 [E,A,]2 | %6
 z6 z4 A,2 | z12 | z12 | z12 | .[E,E]4 [E,B,]2- [E,B,]2 [E,B,]2 [C,C]2 | %11
 [D,=B,]2 [E,C]2 [F,D]2- [F,D]2 [F,C]2 _B,2- | B,2 z2 [E,G,E]2- [E,G,E]2 [E,G,E]2 [E,B,E]2- | %13
 [E,B,E]2 .[E,B,D]4 A2 [A,,A,]2 [E,A,]2 | .[E,G,]4 [E,B,]2- [E,B,]2 E,2 A,2 | %15
 G,2 F,2 B,2- B,2 B,,2 E,2- | E,4 z2 z6 |] %17
V:3
 x8 | z4 [A,C]2- [A,C]2 z2 z2 | x12 | x12 | x12 | z4 [A,C]2- [A,C]2 z2 z2 | x12 | x12 | x12 | x12 | %10
 z6 z4 G2- | G6 z4 [DB]2- | [DB]4 z2 z6 | z4 E2 z6 | z6 z4 C2- | C6 z6 | x12 |] %17
V:4
 x8 | z4 A,,2- A,,2 z2 z2 | x12 | x12 | x12 | z4 A,,2- A,,2 z2 z2 | %6
 .[E,G,]4 [E,B,]2- [E,B,]2 [E,B,E]2 C2- | [G,C=E]2 [F,CF]2 [B,_E]2- [B,E]2 [B,,A,]2 [E,G,]2- | %8
 [E,G,]4 [E,B,]2- [E,B,]2 [E,B,]2 [B,,B,]2- | [B,,B,]2 [B,,B,]2 B,,2- B,,2 B,,2 [E,E]2 | x12 | %11
 z6 z4 B,,2- | B,,4 z2 z6 | z4 A,,2- A,,2 z2 z2 | x12 | x12 | x12 |] %17

